contributed-vectors/my_smart_home.svg

<svg width="192" height="192" viewBox="0 0 192 192" fill="none" xmlns="http://www.w3.org/2000/svg">
<rect x="8" y="8" width="176" height="176" rx="88" fill="#F8C18C"/>
<path d="M88.5224 43.7276C90.5963 41.9681 93.2237 41.0019 95.9394 41C98.655 40.9981 101.284 41.9607 103.36 43.7174L137.911 72.9427C140.502 75.1328 142 78.3641 142 81.7646V132.024C142 134.405 141.058 136.688 139.38 138.371C137.703 140.054 135.428 141 133.056 141H58.9444C56.5731 141 54.2988 140.055 52.6216 138.373C50.9443 136.691 50.0014 134.409 50 132.029V81.7646C50 78.3692 51.4924 75.1482 54.0736 72.9529L88.5224 43.7276Z" fill="white"/>
<path fill-rule="evenodd" clip-rule="evenodd" d="M95.4206 72C96.8425 72 97.9953 73.1892 97.9953 74.6562V97.4967C97.9953 98.9637 96.8425 100.153 95.4206 100.153C93.9986 100.153 92.8459 98.9637 92.8459 97.4967V74.6562C92.8459 73.1892 93.9986 72 95.4206 72ZM83.2287 83.3757C84.2343 84.4128 84.2346 86.0947 83.2293 87.1322C80.8033 89.6358 79.1514 92.8253 78.4824 96.2974C77.8134 99.7695 78.1573 103.368 79.4707 106.639C80.7841 109.909 83.008 112.705 85.8611 114.671C88.7143 116.638 92.0686 117.688 95.5 117.688C98.9314 117.688 102.286 116.638 105.139 114.671C107.992 112.705 110.216 109.909 111.529 106.639C112.843 103.368 113.187 99.7695 112.518 96.2974C111.849 92.8253 110.197 89.6358 107.771 87.1322C106.765 86.0947 106.766 84.4128 107.771 83.3757C108.777 82.3385 110.407 82.3388 111.412 83.3763C114.558 86.6229 116.701 90.759 117.568 95.2616C118.436 99.7642 117.99 104.431 116.287 108.672C114.583 112.913 111.7 116.538 108 119.088C104.3 121.639 99.9498 123 95.5 123C91.0502 123 86.7004 121.639 83.0004 119.088C79.3005 116.538 76.4166 112.913 74.7134 108.672C73.0102 104.431 72.5642 99.7642 73.4318 95.2616C74.2994 90.759 76.4416 86.6229 79.5875 83.3763C80.5928 82.3388 82.223 82.3385 83.2287 83.3757Z" fill="#F8C18C"/>
</svg>

<svg xmlns="http://www.w3.org/2000/svg" width="192" height="192" fill="none"><rect width="176" height="176" x="8" y="8" fill="#F8C18C" rx="88"/><path fill="#fff" d="M88.522 43.728A11.476 11.476 0 0 1 95.94 41c2.716-.002 5.345.96 7.421 2.717l34.551 29.226A11.556 11.556 0 0 1 142 81.765v50.259a8.989 8.989 0 0 1-2.62 6.347 8.928 8.928 0 0 1-6.324 2.629H58.944a8.929 8.929 0 0 1-6.322-2.627A8.992 8.992 0 0 1 50 132.029V81.765a11.57 11.57 0 0 1 4.074-8.812l34.448-29.225Z"/><path fill="#F8C18C" fill-rule="evenodd" d="M95.42 72c1.422 0 2.575 1.19 2.575 2.656v22.84c0 1.468-1.153 2.657-2.574 2.657-1.422 0-2.575-1.19-2.575-2.656v-22.84c0-1.468 1.153-2.657 2.575-2.657ZM83.23 83.376a2.716 2.716 0 0 1 0 3.756 18.082 18.082 0 0 0-4.747 9.165 18.429 18.429 0 0 0 .989 10.342c1.313 3.27 3.537 6.066 6.39 8.032a16.972 16.972 0 0 0 9.639 3.017c3.431 0 6.786-1.05 9.639-3.017 2.853-1.966 5.077-4.762 6.39-8.032a18.423 18.423 0 0 0 .989-10.342 18.082 18.082 0 0 0-4.747-9.165 2.716 2.716 0 0 1 0-3.756 2.519 2.519 0 0 1 3.641 0c3.146 3.247 5.289 7.383 6.156 11.886.868 4.502.422 9.169-1.281 13.41-1.704 4.241-4.587 7.866-8.287 10.416A22.008 22.008 0 0 1 95.5 123c-4.45 0-8.8-1.361-12.5-3.912-3.7-2.55-6.583-6.175-8.287-10.416a23.895 23.895 0 0 1-1.281-13.41c.867-4.503 3.01-8.64 6.156-11.886a2.52 2.52 0 0 1 3.64 0Z" clip-rule="evenodd"/></svg>
